themes/default/assets/images/icons/mid/enterprise.svg

<?xml version="1.0" encoding="UTF-8"?>
<svg width="100px" height="75px" viewBox="0 0 100 75" version="1.1" xmlns="http://www.w3.org/2000/svg" xmlns:xlink="http://www.w3.org/1999/xlink">
    <!-- Generator: sketchtool 59 (101010) - https://sketch.com -->
    <title>602E8D37-F858-494C-92A9-4BE6C1F91381</title>
    <desc>Created with sketchtool.</desc>
    <g id="Page-1" stroke="none" stroke-width="1" fill="none" fill-rule="evenodd">
        <g id="Icons" transform="translate(-134.000000, -3360.000000)" fill-rule="nonzero">
            <g id="mid-icon-enterprise" transform="translate(134.000000, 3360.000000)">
                <polygon id="Path" fill="#032663" points="41.57 62.24 41.57 74.3 42.97 74.3 42.97 63.63 49.57 63.63 49.57 74.3 50.97 74.3 50.97 63.63 57.58 63.63 57.58 74.3 58.97 74.3 58.97 62.24"></polygon>
                <path d="M20.64,75 L11.36,75 L11.36,65.39 L20.64,65.39 L20.64,75 Z M12.75,73.61 L19.24,73.61 L19.24,66.78 L12.75,66.78 L12.75,73.61 Z" id="Shape" fill="#032663"></path>
                <path d="M88.64,75 L79.36,75 L79.36,65.39 L88.64,65.39 L88.64,75 Z M80.76,73.61 L87.25,73.61 L87.25,66.78 L80.76,66.78 L80.76,73.61 Z" id="Shape" fill="#032663"></path>
                <path d="M38.1,25.92 L61.9,25.92 C62.1682053,25.9522296 62.4310199,25.827257 62.5753037,25.5988822 C62.7195874,25.3705074 62.7195874,25.0794926 62.5753037,24.8511178 C62.4310199,24.622743 62.1682053,24.4977704 61.9,24.53 L38.1,24.53 C37.8317947,24.4977704 37.5689801,24.622743 37.4246963,24.8511178 C37.2804126,25.0794926 37.2804126,25.3705074 37.4246963,25.5988822 C37.5689801,25.827257 37.8317947,25.9522296 38.1,25.92 L38.1,25.92 Z" id="Path" fill="#A8C5DD"></path>
                <path d="M38.1,19.79 L61.9,19.79 C62.1682053,19.8222296 62.4310199,19.697257 62.5753037,19.4688822 C62.7195874,19.2405074 62.7195874,18.9494926 62.5753037,18.7211178 C62.4310199,18.492743 62.1682053,18.3677704 61.9,18.4 L38.1,18.4 C37.8317947,18.3677704 37.5689801,18.492743 37.4246963,18.7211178 C37.2804126,18.9494926 37.2804126,19.2405074 37.4246963,19.4688822 C37.5689801,19.697257 37.8317947,19.8222296 38.1,19.79 Z" id="Path" fill="#A8C5DD"></path>
                <path d="M38.1,32.06 L61.9,32.06 C62.2865993,32.06 62.6,31.7465993 62.6,31.36 C62.6,30.9734007 62.2865993,30.66 61.9,30.66 L38.1,30.66 C37.7134007,30.66 37.4,30.9734007 37.4,31.36 C37.4,31.7465993 37.7134007,32.06 38.1,32.06 Z" id="Path" fill="#A8C5DD"></path>
                <path d="M38.1,38.19 L61.9,38.19 C62.1682053,38.2222296 62.4310199,38.097257 62.5753037,37.8688822 C62.7195874,37.6405074 62.7195874,37.3494926 62.5753037,37.1211178 C62.4310199,36.892743 62.1682053,36.7677704 61.9,36.8 L38.1,36.8 C37.8317947,36.7677704 37.5689801,36.892743 37.4246963,37.1211178 C37.2804126,37.3494926 37.2804126,37.6405074 37.4246963,37.8688822 C37.5689801,38.097257 37.8317947,38.2222296 38.1,38.19 L38.1,38.19 Z" id="Path" fill="#A8C5DD"></path>
                <path d="M38.1,44.33 L61.9,44.33 C62.2865993,44.33 62.6,44.0165993 62.6,43.63 C62.6,43.2434007 62.2865993,42.93 61.9,42.93 L38.1,42.93 C37.7134007,42.93 37.4,43.2434007 37.4,43.63 C37.4,44.0165993 37.7134007,44.33 38.1,44.33 Z" id="Path" fill="#A8C5DD"></path>
                <path d="M38.1,50.46 L61.9,50.46 C62.1682053,50.4922296 62.4310199,50.367257 62.5753037,50.1388822 C62.7195874,49.9105074 62.7195874,49.6194926 62.5753037,49.3911178 C62.4310199,49.162743 62.1682053,49.0377704 61.9,49.07 L38.1,49.07 C37.8317947,49.0377704 37.5689801,49.162743 37.4246963,49.3911178 C37.2804126,49.6194926 37.2804126,49.9105074 37.4246963,50.1388822 C37.5689801,50.367257 37.8317947,50.4922296 38.1,50.46 Z" id="Path" fill="#A8C5DD"></path>
                <path d="M38.1,56.6 L61.9,56.6 C62.2865993,56.6 62.6,56.2865993 62.6,55.9 C62.6,55.5134007 62.2865993,55.2 61.9,55.2 L38.1,55.2 C37.7134007,55.2 37.4,55.5134007 37.4,55.9 C37.4,56.2865993 37.7134007,56.6 38.1,56.6 Z" id="Path" fill="#A8C5DD"></path>
                <path d="M7.5,35.12 L24.5,35.12 C24.7682053,35.1522296 25.0310199,35.027257 25.1753037,34.7988822 C25.3195874,34.5705074 25.3195874,34.2794926 25.1753037,34.0511178 C25.0310199,33.822743 24.7682053,33.6977704 24.5,33.73 L7.5,33.73 C7.23179468,33.6977704 6.96898008,33.822743 6.82469634,34.0511178 C6.6804126,34.2794926 6.6804126,34.5705074 6.82469634,34.7988822 C6.96898008,35.027257 7.23179468,35.1522296 7.5,35.12 L7.5,35.12 Z" id="Path" fill="#A8C5DD"></path>
                <path d="M7.5,29.23 L24.5,29.23 C24.7682053,29.2622296 25.0310199,29.137257 25.1753037,28.9088822 C25.3195874,28.6805074 25.3195874,28.3894926 25.1753037,28.1611178 C25.0310199,27.932743 24.7682053,27.8077704 24.5,27.84 L7.5,27.84 C7.23179468,27.8077704 6.96898008,27.932743 6.82469634,28.1611178 C6.6804126,28.3894926 6.6804126,28.6805074 6.82469634,28.9088822 C6.96898008,29.137257 7.23179468,29.2622296 7.5,29.23 L7.5,29.23 Z" id="Path" fill="#A8C5DD"></path>
                <path d="M7.5,41.26 L24.5,41.26 C24.7682053,41.2922296 25.0310199,41.167257 25.1753037,40.9388822 C25.3195874,40.7105074 25.3195874,40.4194926 25.1753037,40.1911178 C25.0310199,39.962743 24.7682053,39.8377704 24.5,39.87 L7.5,39.87 C7.23179468,39.8377704 6.96898008,39.962743 6.82469634,40.1911178 C6.6804126,40.4194926 6.6804126,40.7105074 6.82469634,40.9388822 C6.96898008,41.167257 7.23179468,41.2922296 7.5,41.26 L7.5,41.26 Z" id="Path" fill="#A8C5DD"></path>
                <path d="M7.5,47.39 L24.5,47.39 C24.7682053,47.4222296 25.0310199,47.297257 25.1753037,47.0688822 C25.3195874,46.8405074 25.3195874,46.5494926 25.1753037,46.3211178 C25.0310199,46.092743 24.7682053,45.9677704 24.5,46 L7.5,46 C7.23179468,45.9677704 6.96898008,46.092743 6.82469634,46.3211178 C6.6804126,46.5494926 6.6804126,46.8405074 6.82469634,47.0688822 C6.96898008,47.297257 7.23179468,47.4222296 7.5,47.39 Z" id="Path" fill="#A8C5DD"></path>
                <path d="M7.5,59.66 L24.5,59.66 C24.7682053,59.6922296 25.0310199,59.567257 25.1753037,59.3388822 C25.3195874,59.1105074 25.3195874,58.8194926 25.1753037,58.5911178 C25.0310199,58.362743 24.7682053,58.2377704 24.5,58.27 L7.5,58.27 C7.23179468,58.2377704 6.96898008,58.362743 6.82469634,58.5911178 C6.6804126,58.8194926 6.6804126,59.1105074 6.82469634,59.3388822 C6.96898008,59.567257 7.23179468,59.6922296 7.5,59.66 L7.5,59.66 Z" id="Path" fill="#A8C5DD"></path>
                <path d="M7.5,53.53 L24.5,53.53 C24.7682053,53.5622296 25.0310199,53.437257 25.1753037,53.2088822 C25.3195874,52.9805074 25.3195874,52.6894926 25.1753037,52.4611178 C25.0310199,52.232743 24.7682053,52.1077704 24.5,52.14 L7.5,52.14 C7.23179468,52.1077704 6.96898008,52.232743 6.82469634,52.4611178 C6.6804126,52.6894926 6.6804126,52.9805074 6.82469634,53.2088822 C6.96898008,53.437257 7.23179468,53.5622296 7.5,53.53 Z" id="Path" fill="#A8C5DD"></path>
                <path d="M75.5,47.39 L92.5,47.39 C92.7682053,47.4222296 93.0310199,47.297257 93.1753037,47.0688822 C93.3195874,46.8405074 93.3195874,46.5494926 93.1753037,46.3211178 C93.0310199,46.092743 92.7682053,45.9677704 92.5,46 L75.5,46 C75.2317947,45.9677704 74.9689801,46.092743 74.8246963,46.3211178 C74.6804126,46.5494926 74.6804126,46.8405074 74.8246963,47.0688822 C74.9689801,47.297257 75.2317947,47.4222296 75.5,47.39 L75.5,47.39 Z" id="Path" fill="#A8C5DD"></path>
                <path d="M75.5,41.5 L92.5,41.5 C92.7682053,41.5322296 93.0310199,41.407257 93.1753037,41.1788822 C93.3195874,40.9505074 93.3195874,40.6594926 93.1753037,40.4311178 C93.0310199,40.202743 92.7682053,40.0777704 92.5,40.11 L75.5,40.11 C75.2317947,40.0777704 74.9689801,40.202743 74.8246963,40.4311178 C74.6804126,40.6594926 74.6804126,40.9505074 74.8246963,41.1788822 C74.9689801,41.407257 75.2317947,41.5322296 75.5,41.5 L75.5,41.5 Z" id="Path" fill="#A8C5DD"></path>
                <path d="M75.5,53.53 L92.5,53.53 C92.7682053,53.5622296 93.0310199,53.437257 93.1753037,53.2088822 C93.3195874,52.9805074 93.3195874,52.6894926 93.1753037,52.4611178 C93.0310199,52.232743 92.7682053,52.1077704 92.5,52.14 L75.5,52.14 C75.2317947,52.1077704 74.9689801,52.232743 74.8246963,52.4611178 C74.6804126,52.6894926 74.6804126,52.9805074 74.8246963,53.2088822 C74.9689801,53.437257 75.2317947,53.5622296 75.5,53.53 L75.5,53.53 Z" id="Path" fill="#A8C5DD"></path>
                <path d="M75.5,59.66 L92.5,59.66 C92.7682053,59.6922296 93.0310199,59.567257 93.1753037,59.3388822 C93.3195874,59.1105074 93.3195874,58.8194926 93.1753037,58.5911178 C93.0310199,58.362743 92.7682053,58.2377704 92.5,58.27 L75.5,58.27 C75.2317947,58.2377704 74.9689801,58.362743 74.8246963,58.5911178 C74.6804126,58.8194926 74.6804126,59.1105074 74.8246963,59.3388822 C74.9689801,59.567257 75.2317947,59.6922296 75.5,59.66 L75.5,59.66 Z" id="Path" fill="#A8C5DD"></path>
                <path d="M84.79,33.86 C84.7938839,33.8067374 84.7938839,33.7532626 84.79,33.7 L84.79,14.3 C84.79,13.9134007 84.4765993,13.6 84.09,13.6 C83.7034007,13.6 83.39,13.9134007 83.39,14.3 L83.39,33.7 C83.3861161,33.7532626 83.3861161,33.8067374 83.39,33.86 L69.39,33.86 L69.39,11.28 L30.6,11.28 L30.6,21.46 L0,21.46 L0,75 L100,75 L100,33.86 L84.79,33.86 Z M30.6,73.61 L1.4,73.61 L1.4,22.85 L30.6,22.85 L30.6,73.61 Z M68,73.61 L32,73.61 L32,12.67 L68,12.67 L68,73.61 Z M98.6,73.61 L69.4,73.61 L69.4,35.25 L98.6,35.25 L98.6,73.61 Z" id="Shape" fill="#A8C5DD"></path>
                <path d="M62.59,12.66 L37.41,12.66 L37.41,0 L62.59,0 L62.59,12.66 Z M38.79,11.29 L61.21,11.29 L61.21,1.37 L38.79,1.37 L38.79,11.29 Z" id="Shape" fill="#2969F6"></path>
                <path d="M49.76,9.73001473 C47.8848749,9.71896966 46.3726833,8.19188819 46.3799994,6.31674506 C46.3873688,4.44160192 47.9114735,2.92641011 49.7866275,2.93005868 C51.6617814,2.93372045 53.18,4.45484249 53.18,6.33 C53.1773517,7.23438943 52.8155426,8.10068497 52.1741673,8.7383095 C51.5327921,9.37593403 50.6643894,9.73265606 49.76,9.73001473 L49.76,9.73001473 Z M49.76,4.3 C48.6554305,4.3 47.76,5.1954305 47.76,6.3 C47.76,7.4045695 48.6554305,8.3 49.76,8.3 C50.8645695,8.3 51.76,7.4045695 51.76,6.3 C51.76,5.76956702 51.5492863,5.26085919 51.1742136,4.88578644 C50.7991408,4.51071368 50.290433,4.3 49.76,4.3 Z" id="Shape" fill="#2969F6"></path>
            </g>
        </g>
    </g>
</svg>

<svg width="100" height="75" xmlns="http://www.w3.org/2000/svg"><g fill-rule="nonzero" fill="none"><path fill="#032663" d="M41.57 62.24V74.3h1.4V63.63h6.6V74.3h1.4V63.63h6.61V74.3h1.39V62.24zM20.64 75h-9.28v-9.61h9.28V75zm-7.89-1.39h6.49v-6.83h-6.49v6.83zM88.64 75h-9.28v-9.61h9.28V75zm-7.88-1.39h6.49v-6.83h-6.49v6.83z"/><path d="M38.1 25.92h23.8a.7.7 0 100-1.39H38.1a.7.7 0 100 1.39zM38.1 19.79h23.8a.7.7 0 100-1.39H38.1a.7.7 0 100 1.39zM38.1 32.06h23.8a.7.7 0 000-1.4H38.1a.7.7 0 000 1.4zM38.1 38.19h23.8a.7.7 0 100-1.39H38.1a.7.7 0 100 1.39zM38.1 44.33h23.8a.7.7 0 000-1.4H38.1a.7.7 0 000 1.4zM38.1 50.46h23.8a.7.7 0 100-1.39H38.1a.7.7 0 100 1.39zM38.1 56.6h23.8a.7.7 0 000-1.4H38.1a.7.7 0 000 1.4zM7.5 35.12h17a.7.7 0 100-1.39h-17a.7.7 0 100 1.39zM7.5 29.23h17a.7.7 0 100-1.39h-17a.7.7 0 100 1.39zM7.5 41.26h17a.7.7 0 100-1.39h-17a.7.7 0 100 1.39zM7.5 47.39h17a.7.7 0 100-1.39h-17a.7.7 0 100 1.39zM7.5 59.66h17a.7.7 0 100-1.39h-17a.7.7 0 100 1.39zM7.5 53.53h17a.7.7 0 100-1.39h-17a.7.7 0 100 1.39zM75.5 47.39h17a.7.7 0 100-1.39h-17a.7.7 0 100 1.39zM75.5 41.5h17a.7.7 0 100-1.39h-17a.7.7 0 100 1.39zM75.5 53.53h17a.7.7 0 100-1.39h-17a.7.7 0 100 1.39zM75.5 59.66h17a.7.7 0 100-1.39h-17a.7.7 0 100 1.39z" fill="#A8C5DD"/><path d="M84.79 33.86a1.1 1.1 0 000-.16V14.3a.7.7 0 00-1.4 0v19.4a1.1 1.1 0 000 .16h-14V11.28H30.6v10.18H0V75h100V33.86H84.79zM30.6 73.61H1.4V22.85h29.2v50.76zm37.4 0H32V12.67h36v60.94zm30.6 0H69.4V35.25h29.2v38.36z" fill="#A8C5DD"/><path d="M62.59 12.66H37.41V0h25.18v12.66zm-23.8-1.37h22.42V1.37H38.79v9.92z" fill="#2969F6"/><path d="M49.76 9.73a3.4 3.4 0 113.42-3.4 3.41 3.41 0 01-3.42 3.4zm0-5.43a2 2 0 100 4 2 2 0 000-4z" fill="#2969F6"/></g></svg>
